assets/icons/microphone/_.svg

<svg height="24" width="24" xmlns="http://www.w3.org/2000/svg"><path style="fill:gray;stroke-width:.5;stroke-linecap:round;stroke-linejoin:round;fill-opacity:1" d="M11.5 2A3.492 3.492 0 0 0 8 5.5v7c0 1.939 1.561 3.5 3.5 3.5s3.5-1.561 3.5-3.5v-7C15 3.561 13.439 2 11.5 2zm0 1A2.5 2.5 0 0 1 14 5.5v7a2.5 2.5 0 0 1-2.5 2.5A2.5 2.5 0 0 1 9 12.5v-7A2.5 2.5 0 0 1 11.5 3zM6 11v1.5a5.5 5.5 0 0 0 5 5.467v3.045c-1.744.071-3 .488-3 .488v.5h7v-.5s-1.256-.417-3-.488v-3.045a5.5 5.5 0 0 0 5-5.467V11h-1v1.5a4.5 4.5 0 0 1-4 4.465V16.5h-1v.465A4.5 4.5 0 0 1 7 12.5V11H6z"/></svg>

<?xml version="1.0" encoding="UTF-8" standalone="no"?>
<svg viewBox="0 0 24 24" height="24" width="24" version="1.1" id="svg10" sodipodi:docname="_.svg" inkscape:version="1.1 (ce6663b3b7, 2021-05-25)"
   xmlns:inkscape="http://www.inkscape.org/namespaces/inkscape"
   xmlns:sodipodi="http://sodipodi.sourceforge.net/DTD/sodipodi-0.dtd"
   xmlns="http://www.w3.org/2000/svg"
   xmlns:svg="http://www.w3.org/2000/svg">
   <defs id="defs14" />
   <sodipodi:namedview id="namedview12" pagecolor="#ffffff" bordercolor="#666666" borderopacity="1.0" inkscape:pageshadow="2" inkscape:pageopacity="0.0" inkscape:pagecheckerboard="0" showgrid="true" width="24px" inkscape:zoom="9.899495" inkscape:cx="-3.8890873" inkscape:cy="7.0205601" inkscape:window-width="1920" inkscape:window-height="1016" inkscape:window-x="0" inkscape:window-y="27" inkscape:window-maximized="1" inkscape:current-layer="svg10">
      <inkscape:grid type="xygrid" id="grid831" />
      <inkscape:grid type="xygrid" id="grid822" dotted="true" spacingx="0.5" spacingy="0.5" empspacing="0" />
   </sodipodi:namedview>
   <path id="rect864" style="fill:#808080;fill-rule:evenodd;stroke-width:0.5;stroke-linecap:round;stroke-linejoin:round;fill-opacity:1" d="M 11.5 2 C 9.561 2 8 3.561 8 5.5 L 8 12.5 C 8 14.439 9.561 16 11.5 16 C 13.439 16 15 14.439 15 12.5 L 15 5.5 C 15 3.561 13.439 2 11.5 2 z M 11.5 3 A 2.5 2.5 0 0 1 14 5.5 L 14 12.5 A 2.5 2.5 0 0 1 11.5 15 A 2.5 2.5 0 0 1 9 12.5 L 9 5.5 A 2.5 2.5 0 0 1 11.5 3 z M 6 11 L 6 12.5 A 5.5 5.5 0 0 0 11 17.966797 L 11 21.011719 C 9.255902 21.083229 8 21.5 8 21.5 L 8 22 L 15 22 L 15 21.5 C 15 21.5 13.744098 21.083229 12 21.011719 L 12 17.966797 A 5.5 5.5 0 0 0 17 12.5 L 17 11 L 16 11 L 16 12.5 A 4.5 4.5 0 0 1 12 16.964844 L 12 16.5 L 11 16.5 L 11 16.964844 A 4.5 4.5 0 0 1 7 12.5 L 7 11 L 6 11 z " />
</svg>
